static/img/rl1.a709044d.svg

<?xml version="1.0" encoding="UTF-8"?>
<svg width="40px" height="40px" viewBox="0 0 40 40" version="1.1" xmlns="http://www.w3.org/2000/svg" xmlns:xlink="http://www.w3.org/1999/xlink">
    <!-- Generator: Sketch 52.1 (67048) - http://www.bohemiancoding.com/sketch -->
    <title>icon_顶部下拉_睿灵_n</title>
    <desc>Created with Sketch.</desc>
    <g id="icon_顶部下拉_睿灵_n" stroke="none" stroke-width="1" fill="none" fill-rule="evenodd" opacity="0.5">
        <g>
            <rect id="矩形" fill="#D8D8D8" fill-rule="nonzero" opacity="0" x="0" y="0" width="40" height="40"></rect>
            <path d="M31.4769531,23 L31.4769531,14 L22.3578125,14 L22.3578125,12 L33.4769531,12 L33.4769531,23 L31.4769531,23 Z M24,30.4769531 L24,32.4769531 L13,32.4769531 L13,21.3578125 L15,21.3578125 L15,30.4769531 L24,30.4769531 Z" id="合并形状" fill="#0085FF" fill-rule="nonzero" opacity="0.3"></path>
            <path d="M8,7 L8,20.3578125 L21.3578125,20.3578125 L21.3578125,7 L8,7 Z" id="路径-copy-2" stroke="#0085FF" stroke-width="2"></path>
            <path d="M25,24 L25,31.3578125 L32.3578125,31.3578125 L32.3578125,24 L25,24 Z" id="路径-copy-3" stroke="#0085FF" stroke-width="2"></path>
        </g>
    </g>
</svg>

<svg width="40" height="40" xmlns="http://www.w3.org/2000/svg"><g fill="none" fill-rule="evenodd" opacity=".5"><path d="M31.477 23v-9h-9.12v-2h11.12v11h-2zM24 30.477v2H13v-11.12h2v9.12h9z" fill="#0085FF" fill-rule="nonzero" opacity=".3"/><path d="M8 7v13.358h13.358V7H8zm17 17v7.358h7.358V24H25z" stroke="#0085FF" stroke-width="2"/></g></svg>
